svgs/sharp-regular/money-bill-1.svg

<svg xmlns="http://www.w3.org/2000/svg" viewBox="0 0 576 512"><!--! Font Awesome Pro 6.6.0 by @fontawesome - https://fontawesome.com License - https://fontawesome.com/license (Commercial License) Copyright 2024 Fonticons, Inc. --><path d="M112 112c0 35.3-28.7 64-64 64l0 160c35.3 0 64 28.7 64 64l352 0c0-35.3 28.7-64 64-64l0-160c-35.3 0-64-28.7-64-64l-352 0zM0 64l48 0 480 0 48 0 0 48 0 288 0 48-48 0L48 448 0 448l0-48L0 112 0 64zM176 256a112 112 0 1 1 224 0 112 112 0 1 1 -224 0zm80-64l0 32 16 0 0 64-8 0-16 0 0 32 16 0 8 0 32 0 8 0 16 0 0-32-16 0-8 0 0-80 0-16-16 0-16 0-16 0z"/></svg>

<svg xmlns="http://www.w3.org/2000/svg" viewBox="0 0 576 512"><!--! Font Awesome Pro 6.5.2 by @fontawesome - https://fontawesome.com License - https://fontawesome.com/license (Commercial License) Copyright 2024 Fonticons, Inc. --><path d="M112 112c0 35.3-28.7 64-64 64V336c35.3 0 64 28.7 64 64H464c0-35.3 28.7-64 64-64V176c-35.3 0-64-28.7-64-64H112zM0 64H48 528h48v48V400v48H528 48 0V400 112 64zM176 256a112 112 0 1 1 224 0 112 112 0 1 1 -224 0zm80-64v32h16v64h-8H248v32h16 8 32 8 16V288H312h-8V208 192H288 272 256z"/></svg>
